cssgg/desktop.svg

<svg
  width="24"
  height="24"
  viewBox="0 0 24 24"
  fill="none"
  xmlns="http://www.w3.org/2000/svg"
>
  <path
    d="M8 15C7.44772 15 7 15.4477 7 16C7 16.5523 7.44772 17 8 17C8.55228 17 9 16.5523 9 16C9 15.4477 8.55228 15 8 15Z"
    fill="currentColor"
  />
  <path
    d="M11 16C11 15.4477 11.4477 15 12 15C12.5523 15 13 15.4477 13 16C13 16.5523 12.5523 17 12 17C11.4477 17 11 16.5523 11 16Z"
    fill="currentColor"
  />
  <path
    d="M16 15C15.4477 15 15 15.4477 15 16C15 16.5523 15.4477 17 16 17C16.5523 17 17 16.5523 17 16C17 15.4477 16.5523 15 16 15Z"
    fill="currentColor"
  />
  <path
    fill-rule="evenodd"
    clip-rule="evenodd"
    d="M4 3C2.34315 3 1 4.34315 1 6V18C1 19.6569 2.34315 21 4 21H20C21.6569 21 23 19.6569 23 18V6C23 4.34315 21.6569 3 20 3H4ZM20 5H4C3.44772 5 3 5.44772 3 6V7H21V6C21 5.44772 20.5523 5 20 5ZM3 18V9H21V18C21 18.5523 20.5523 19 20 19H4C3.44772 19 3 18.5523 3 18Z"
    fill="currentColor"
  />
</svg>

<svg viewBox="0 0 24 24" xmlns="http://www.w3.org/2000/svg"><g><path d="M8 15c-.56 0-1 .44-1 1 0 .55.44 1 1 1 .55 0 1-.45 1-1 0-.56-.45-1-1-1Z"/><path d="M11 16c0-.56.44-1 1-1 .55 0 1 .44 1 1 0 .55-.45 1-1 1 -.56 0-1-.45-1-1Z"/><path d="M16 15c-.56 0-1 .44-1 1 0 .55.44 1 1 1 .55 0 1-.45 1-1 0-.56-.45-1-1-1Z"/><path fill-rule="evenodd" d="M4 3C2.34 3 1 4.34 1 6v12c0 1.65 1.34 3 3 3h16c1.65 0 3-1.35 3-3V6c0-1.66-1.35-3-3-3H4Zm16 2H4c-.56 0-1 .44-1 1v1h18V6c0-.56-.45-1-1-1ZM3 18V9h18v9c0 .55-.45 1-1 1H4c-.56 0-1-.45-1-1Z"/></g></svg>
